img/icons/files/archive.svg

<?xml version="1.0" encoding="UTF-8"?>
<svg width="30px" height="40px" viewBox="0 0 30 40" version="1.1" xmlns="http://www.w3.org/2000/svg" xmlns:xlink="http://www.w3.org/1999/xlink">
    <title>archive</title>
    <g id="Layout" stroke="none" stroke-width="1" fill="none" fill-rule="evenodd">
        <g id="01-home-page" transform="translate(-285.000000, -389.000000)" fill="#777777">
            <g id="archive" transform="translate(285.000000, 389.000000)">
                <path d="M29.4531263,8.20312632 C29.8177105,8.56771053 30,9.01041579 30,9.53125263 L30,10 L20,10 L20,0 L20.4687474,0 C20.9895842,0 21.4322895,0.182289474 21.7968737,0.546873684 L29.4531263,8.20312632 Z M8.75,26.5625 C9.16666842,26.3541632 9.59635263,26.25 10.0390632,26.25 C10.4817737,26.25 10.8984368,26.3411474 11.2890632,26.5234368 C11.6796895,26.7057316 11.9921842,26.9661421 12.2265632,27.3046895 C12.4609368,27.6432316 12.5781263,27.9947895 12.5781263,28.3593737 C12.5781263,28.9322947 12.3307316,29.4270789 11.8359368,29.8437474 C11.3411421,30.2604211 10.7421895,30.4687474 10.0390632,30.4687474 C9.33593158,30.4687474 8.73698421,30.2604211 8.24218947,29.8437474 C7.74739474,29.4270789 7.5,28.9322947 7.5,28.3593737 C7.5,27.9947895 7.61718421,27.6432316 7.85156316,27.3046895 C8.08593684,26.9661421 8.38541579,26.7187526 8.75,26.5625 Z M17.5,10.625 C17.5,11.1458368 17.6822895,11.5885421 18.0468737,11.9531263 C18.4114579,12.3177105 18.8541632,12.5 19.375,12.5 L30,12.5 L30,38.125 C30,38.6458358 29.8177105,39.08854 29.4531263,39.4531253 C29.0885421,39.8177102 28.6458368,40 28.125,40 L1.875,40 C1.35416421,40 0.91146,39.8177102 0.546874737,39.4531253 C0.182289842,39.08854 0,38.6458358 0,38.125 L0,1.875 C0,1.35416316 0.182289842,0.911457895 0.546874737,0.546873684 C0.91146,0.182289474 1.35416421,0 1.875,0 L10,0 L10,2.5 L12.5,2.5 L12.5,0 L17.5,0 L17.5,10.625 Z M7.5,2.5 L7.5,5 L10,5 L10,2.5 L7.5,2.5 Z M6.79687368,31.0156263 C7.63021053,32.0052158 8.69791053,32.5 10,32.5 C11.3020895,32.5 12.3567684,32.0052158 13.1640632,31.0156263 C13.9713579,30.0260368 14.2708368,28.8802158 14.0625,27.5781263 L12.6562526,20.7812526 C12.5520842,20.2604158 12.2395842,20 11.7187474,20 L10,20 L10,17.5 L12.5,17.5 L12.5,15 L10,15 L10,12.5 L12.5,12.5 L12.5,10 L10,10 L10,7.5 L12.5,7.5 L12.5,5 L10,5 L10,7.5 L7.5,7.5 L7.5,10 L10,10 L10,12.5 L7.5,12.5 L7.5,15 L10,15 L10,17.5 L7.5,17.5 L7.5,20 L6.01562632,27.5781263 C5.75520526,28.8281316 6.01562105,29.9739526 6.79687368,31.0156263 Z" id="Fill-1"></path>
            </g>
        </g>
    </g>
</svg>

<svg width="30" height="40" xmlns="http://www.w3.org/2000/svg">
  <path d="M29.5 8.2c.3.4.5.8.5 1.3v.5H20V0h.5c.5 0 1 .2 1.3.5l7.7 7.7ZM8.7 26.6a2.8 2.8 0 0 1 2.6 0c.4.1.7.4 1 .7.2.3.3.7.3 1 0 .6-.3 1.1-.8 1.5-.5.5-1 .7-1.8.7-.7 0-1.3-.2-1.8-.7-.5-.4-.7-.9-.7-1.4 0-.4.1-.8.4-1.1.2-.3.5-.6.8-.7Zm8.8-16c0 .5.2 1 .5 1.4.4.3.9.5 1.4.5H30v25.6c0 .5-.2 1-.5 1.4-.4.3-.9.5-1.4.5H2c-.5 0-1-.2-1.4-.5C.2 39 0 38.6 0 38V2C0 1.4.2.9.5.5 1 .2 1.4 0 2 0H10v2.5h2.5V0h5v10.6Zm-10-8.1V5H10V2.5H7.5ZM6.8 31a4 4 0 0 0 3.2 1.5c1.3 0 2.4-.5 3.2-1.5.8-1 1-2.1.9-3.4l-1.4-6.8c-.1-.5-.5-.8-1-.8H10v-2.5h2.5V15H10v-2.5h2.5V10H10V7.5h2.5V5H10v2.5H7.5V10H10v2.5H7.5V15H10v2.5H7.5V20L6 27.6c-.2 1.2 0 2.4.8 3.4Z" fill="#777" fill-rule="evenodd"/>
</svg>
